img/illustrations/16 Мобильное приложение.svg

<svg width="145" height="145" viewBox="0 0 145 145" fill="none" xmlns="http://www.w3.org/2000/svg">
<path d="M5 121.17H124.62" stroke="#007B64" stroke-width="2" stroke-linecap="round" stroke-linejoin="round"/>
<path d="M129.13 121.17H140" stroke="#007B64" stroke-width="2" stroke-linecap="round" stroke-linejoin="round"/>
<path d="M118.68 121.17H98.14L101.08 116.99V78.2H112.79C114.35 78.1999 115.847 78.8191 116.951 79.9216C118.056 81.024 118.677 82.5196 118.68 84.08V121.17Z" fill="#007B64"/>
<path d="M93.73 25H49.31C45.4219 25 42.27 28.1519 42.27 32.04V113.96C42.27 117.848 45.4219 121 49.31 121H93.73C97.6181 121 100.77 117.848 100.77 113.96V32.04C100.77 28.1519 97.6181 25 93.73 25Z" fill="white"/>
<path d="M101.08 37.2H88.53V109.09H101.08V37.2Z" fill="#EBEBEB"/>
<path d="M42.2 42.14V32.85C42.2 31.8191 42.403 30.7983 42.7975 29.8459C43.192 28.8935 43.7702 28.0282 44.4992 27.2992C45.2281 26.5703 46.0935 25.9921 47.0459 25.5976C47.9983 25.2031 49.0191 25 50.0499 25H93.27C94.3012 24.9987 95.3226 25.2008 96.2756 25.5949C97.2286 25.9889 98.0945 26.5671 98.8237 27.2963C99.5529 28.0255 100.131 28.8914 100.525 29.8444C100.919 30.7974 101.121 31.8188 101.12 32.85V113.32C101.121 114.351 100.919 115.373 100.525 116.326C100.131 117.279 99.5529 118.145 98.8237 118.874C98.0945 119.603 97.2286 120.181 96.2756 120.575C95.3226 120.969 94.3012 121.171 93.27 121.17H50.0499C47.968 121.17 45.9713 120.343 44.4992 118.871C43.027 117.399 42.2 115.402 42.2 113.32V79.1" stroke="#007B64" stroke-width="2" stroke-miterlimit="10" stroke-linecap="round"/>
<path d="M54.78 37.2H55.51H57.73H61.52H101.08" stroke="#007B64" stroke-width="2" stroke-linecap="round" stroke-linejoin="round"/>
<path d="M42.2 37.2H44.7099H48.65" stroke="#007B64" stroke-width="2" stroke-linecap="round" stroke-linejoin="round"/>
<path d="M42.2 109.09H101.08" stroke="#007B64" stroke-width="2" stroke-miterlimit="10"/>
<path d="M65.75 30.83H77.53" stroke="#007B64" stroke-width="2" stroke-linecap="round" stroke-linejoin="round"/>
<path d="M71.6399 117.67C72.993 117.67 74.0899 116.573 74.0899 115.22C74.0899 113.867 72.993 112.77 71.6399 112.77C70.2868 112.77 69.1899 113.867 69.1899 115.22C69.1899 116.573 70.2868 117.67 71.6399 117.67Z" fill="#007B64"/>
<path d="M57.69 91.67H51.8C50.7175 91.67 49.84 92.5476 49.84 93.63V99.52C49.84 100.603 50.7175 101.48 51.8 101.48H57.69C58.7724 101.48 59.65 100.603 59.65 99.52V93.63C59.65 92.5476 58.7724 91.67 57.69 91.67Z" fill="#FFB02A"/>
<path d="M74.59 91.67H68.7C67.6175 91.67 66.74 92.5476 66.74 93.63V99.52C66.74 100.603 67.6175 101.48 68.7 101.48H74.59C75.6725 101.48 76.55 100.603 76.55 99.52V93.63C76.55 92.5476 75.6725 91.67 74.59 91.67Z" fill="#FFB02A"/>
<path d="M91.48 91.67H85.59C84.5075 91.67 83.63 92.5476 83.63 93.63V99.52C83.63 100.603 84.5075 101.48 85.59 101.48H91.48C92.5625 101.48 93.44 100.603 93.44 99.52V93.63C93.44 92.5476 92.5625 91.67 91.48 91.67Z" fill="#FFB02A"/>
<path d="M42.46 47.67H17.22C14.801 47.67 12.84 49.631 12.84 52.05V69.19C12.84 71.6091 14.801 73.57 17.22 73.57H42.46C44.879 73.57 46.84 71.6091 46.84 69.19V52.05C46.84 49.631 44.879 47.67 42.46 47.67Z" fill="white" stroke="#007B64" stroke-width="2" stroke-miterlimit="10"/>
<path d="M19.28 55.34H40.4" stroke="#FFB02A" stroke-width="2" stroke-linecap="round" stroke-linejoin="round"/>
<path d="M19.28 60.62H40.4" stroke="#FFB02A" stroke-width="2" stroke-linecap="round" stroke-linejoin="round"/>
<path d="M19.28 65.9H40.4" stroke="#FFB02A" stroke-width="2" stroke-linecap="round" stroke-linejoin="round"/>
</svg>

<svg width="145" height="145" fill="none" xmlns="http://www.w3.org/2000/svg"><path d="M5 121.17h119.62m4.51 0H140" stroke="#007B64" stroke-width="2" stroke-linecap="round" stroke-linejoin="round"/><path d="M118.68 121.17H98.14l2.94-4.18V78.2h11.71a5.889 5.889 0 015.89 5.88v37.09z" fill="#007B64"/><path d="M93.73 25H49.31a7.04 7.04 0 00-7.04 7.04v81.92a7.04 7.04 0 007.04 7.04h44.42a7.04 7.04 0 007.04-7.04V32.04A7.04 7.04 0 0093.73 25z" fill="#fff"/><path d="M101.08 37.2H88.53v71.89h12.55V37.2z" fill="#EBEBEB"/><path d="M42.2 42.14v-9.29A7.85 7.85 0 0150.05 25h43.22a7.84 7.84 0 017.85 7.85v80.47a7.85 7.85 0 01-2.296 5.554 7.841 7.841 0 01-5.554 2.296H50.05a7.85 7.85 0 01-7.85-7.85V79.1" stroke="#007B64" stroke-width="2" stroke-miterlimit="10" stroke-linecap="round"/><path d="M54.78 37.2h46.3m-58.88 0h6.45" stroke="#007B64" stroke-width="2" stroke-linecap="round" stroke-linejoin="round"/><path d="M42.2 109.09h58.88" stroke="#007B64" stroke-width="2" stroke-miterlimit="10"/><path d="M65.75 30.83h11.78" stroke="#007B64" stroke-width="2" stroke-linecap="round" stroke-linejoin="round"/><path d="M71.64 117.67a2.45 2.45 0 100-4.9 2.45 2.45 0 000 4.9z" fill="#007B64"/><path d="M57.69 91.67H51.8a1.96 1.96 0 00-1.96 1.96v5.89a1.96 1.96 0 001.96 1.96h5.89a1.96 1.96 0 001.96-1.96v-5.89a1.96 1.96 0 00-1.96-1.96zm16.9 0H68.7a1.96 1.96 0 00-1.96 1.96v5.89a1.96 1.96 0 001.96 1.96h5.89a1.96 1.96 0 001.96-1.96v-5.89a1.96 1.96 0 00-1.96-1.96zm16.89 0h-5.89a1.96 1.96 0 00-1.96 1.96v5.89a1.96 1.96 0 001.96 1.96h5.89a1.96 1.96 0 001.96-1.96v-5.89a1.96 1.96 0 00-1.96-1.96z" fill="#FFB02A"/><path d="M42.46 47.67H17.22a4.38 4.38 0 00-4.38 4.38v17.14a4.38 4.38 0 004.38 4.38h25.24a4.38 4.38 0 004.38-4.38V52.05a4.38 4.38 0 00-4.38-4.38z" fill="#fff" stroke="#007B64" stroke-width="2" stroke-miterlimit="10"/><path d="M19.28 55.34H40.4m-21.12 5.28H40.4M19.28 65.9H40.4" stroke="#FFB02A" stroke-width="2" stroke-linecap="round" stroke-linejoin="round"/></svg>
